Papirus/64x64/mimetypes/application-x-hip.svg

<svg width="64" height="64" version="1.1" xmlns="http://www.w3.org/2000/svg">
 <path d="m14.5 8c-1.385 0-2.5 1.115-2.5 2.5v45c0 1.385 1.115 2.5 2.5 2.5h35c1.385 0 2.5-1.115 2.5-2.5v-32.5l-15-15z" style="opacity:.2"/>
 <path d="m14.5 7c-1.385 0-2.5 1.115-2.5 2.5v45c0 1.385 1.115 2.5 2.5 2.5h35c1.385 0 2.5-1.115 2.5-2.5v-32.5l-15-15z" style="fill:#f36128"/>
 <path d="m52 23-15-15v12.5c0 1.385 1.115 2.5 2.5 2.5z" style="opacity:.2"/>
 <path d="m52 22-15-15v12.5c0 1.385 1.115 2.5 2.5 2.5z" style="fill:#ebb9a1"/>
 <path d="m14.5 7c-1.385 0-2.5 1.115-2.5 2.5v1c0-1.385 1.115-2.5 2.5-2.5h22.5v-1z" style="fill:#ffffff;opacity:.2"/>
 <path d="m24.481634 27.000005c-5.005862-0.003095-9.234102 1.608344-12.481634 4.100359v4.87838c2.654419-2.755481 6.531686-4.677498 11.477814-4.752486 0.329738-0.0051 0.664621-0.0016 1.00382 0.01008 7.659255 0.264878 12.756023 6.375724 12.763761 12.722817 0.0095 7.009392-4.320287 11.796576-11.620141 11.705597-4.971465-0.06177-9.815653-3.464601-9.691839-8.641344 0.09802-4.110503 3.007205-7.43506 7.6313-7.544809 3.737629-0.0886 5.243294 2.492025 5.243294 4.089027 0 1.514065-0.895173 3.465756-3.09459 3.935437-1.776379 0.379353-4.289406-1.484046-2.391785-4.026082-1.939749-0.08826-3.631296 1.138528-3.731896 3.311005-0.194316 4.212889 4.171139 5.848692 6.961249 5.400841 5.115914-0.820828 7.012174-4.150959 6.988959-8.674076-0.02496-4.732644-4.309571-8.919182-9.863134-8.974959-4.445257-0.044272-9.751682 2.504974-11.676812 8.064739v8.517969c0.836427 2.178775 2.358364 4.257388 4.469944 5.85212 0.530056 0.014903 18.530056 0.014903 19.271849 0.02538 3.86457-2.745083 6.255926-7.270176 6.258206-13.066031 0.0026-9.442345-6.8016-16.927601-17.518365-16.933962z" style="opacity:.2"/>
 <path d="m24.481634 26.000004c-5.005862-0.003096-9.234102 1.608797-12.481634 4.101516v4.879756c2.654419-2.756259 6.531686-4.678818 11.477814-4.753827 0.329738-0.0051 0.664621-0.0016 1.00382 0.01008 7.659255 0.264952 12.756023 6.37752 12.763761 12.726404 0.0095 7.011368-4.320287 11.799904-11.620141 11.708898-4.971465-0.06178-9.815653-3.465578-9.691839-8.643781 0.09802-4.111662 3.007205-7.437156 7.6313-7.546937 3.737629-0.08863 5.243294 2.492729 5.243294 4.090181 0 1.514492-0.895173 3.466733-3.09459 3.936546-1.776379 0.379461-4.289406-1.484464-2.391785-4.027216-1.939749-0.08829-3.631296 1.138848-3.731896 3.311938-0.194316 4.214076 4.171139 5.850341 6.961249 5.402363 5.115914-0.821059 7.012174-4.152128 6.988959-8.676521-0.02496-4.733982-4.309571-8.9217-9.863134-8.977493-4.445257-0.044278-9.751682 2.505687-11.676812 8.06702v8.520372c1.028338 2.679431 3.092843 5.207424 6.015363 6.870697h16.124106c4.795203-2.566605 7.85795-7.499842 7.86053-14.061256 0.0026-9.445008-6.8016-16.932376-17.518365-16.938738z" style="fill:#e4e4e4"/>
</svg>

<svg xmlns="http://www.w3.org/2000/svg" width="64" height="64" version="1.1">
 <path style="opacity:0.2" d="m14.5 8c-1.385 0-2.5 1.115-2.5 2.5v45c0 1.385 1.115 2.5 2.5 2.5h35c1.385 0 2.5-1.115 2.5-2.5v-32.5l-15-15z"/>
 <path style="fill:#f36128" d="m14.5 7c-1.385 0-2.5 1.115-2.5 2.5v45c0 1.385 1.115 2.5 2.5 2.5h35c1.385 0 2.5-1.115 2.5-2.5v-32.5l-15-15z"/>
 <path style="opacity:0.2" d="m52 23-15-15v12.5c0 1.385 1.115 2.5 2.5 2.5z"/>
 <path style="fill:#ebb9a1" d="m52 22-15-15v12.5c0 1.385 1.115 2.5 2.5 2.5z"/>
 <path style="fill:#ffffff;opacity:0.2" d="m14.5 7c-1.385 0-2.5 1.115-2.5 2.5v1c0-1.385 1.115-2.5 2.5-2.5h22.5v-1z"/>
 <path style="opacity:0.2" d="M 24.482,27 C 19.476,26.997 15.248,28.608 12,31.1 V 35.979 C 14.654,33.223 18.532,31.301 23.478,31.226 23.808,31.221 24.142,31.225 24.482,31.236 32.141,31.501 37.238,37.612 37.245,43.959 37.255,50.969 32.925,55.756 25.625,55.665 20.654,55.603 15.81,52.2 15.933,47.023 16.031,42.913 18.941,39.588 23.565,39.479 27.302,39.39 28.808,41.971 28.808,43.568 28.808,45.082 27.913,47.033 25.713,47.503 23.937,47.882 21.424,46.019 23.322,43.477 21.382,43.389 19.69,44.616 19.59,46.788 19.395,51.001 23.761,52.637 26.551,52.189 31.667,51.368 33.563,48.038 33.54,43.515 33.515,38.782 29.23,34.596 23.677,34.54 19.232,34.496 13.925,37.045 12,42.605 V 51.123 C 12.836,53.301 14.358,55.38 16.47,56.975 17,56.99 35,56.99 35.742,57 39.606,54.255 41.998,49.73 42,43.934 42.003,34.492 35.198,27.006 24.482,27 Z"/>
 <path style="fill:#e4e4e4" d="M 24.482,26 C 19.476,25.997 15.248,27.609 12,30.102 V 34.981 C 14.654,32.225 18.532,30.302 23.478,30.227 23.808,30.222 24.142,30.226 24.482,30.238 32.141,30.502 37.238,36.615 37.245,42.964 37.255,49.975 32.925,54.764 25.625,54.673 20.654,54.611 15.81,51.207 15.933,46.029 16.031,41.917 18.941,38.592 23.565,38.482 27.302,38.393 28.808,40.975 28.808,42.572 28.808,44.087 27.913,46.039 25.713,46.509 23.937,46.888 21.424,45.024 23.322,42.482 21.382,42.393 19.69,43.62 19.59,45.794 19.395,50.008 23.761,51.644 26.551,51.196 31.667,50.375 33.563,47.044 33.54,42.519 33.515,37.785 29.23,33.598 23.677,33.542 19.232,33.498 13.925,36.048 12,41.609 V 50.129 C 13.028,52.809 15.093,55.337 18.015,57 H 34.139 C 38.935,54.433 41.997,49.5 42,42.939 42.003,33.494 35.198,26.006 24.482,26 Z"/>
</svg>
